SVG_Azure_All/Cloud Simple Service.svg

<?xml version="1.0" encoding="UTF-8" standalone="no"?>
<!-- Generated by Microsoft Visio, SVG Export Cloud Simple Service.svg Page-1 -->

<svg
   xmlns:dc="http://purl.org/dc/elements/1.1/"
   xmlns:cc="http://creativecommons.org/ns#"
   xmlns:rdf="http://www.w3.org/1999/02/22-rdf-syntax-ns#"
   xmlns:svg="http://www.w3.org/2000/svg"
   xmlns="http://www.w3.org/2000/svg"
   xmlns:sodipodi="http://sodipodi.sourceforge.net/DTD/sodipodi-0.dtd"
   xmlns:inkscape="http://www.inkscape.org/namespaces/inkscape"
   width="0.78735912in"
   height="0.78735912in"
   viewBox="0 0 56.689855 56.689997"
   xml:space="preserve"
   class="st4"
   version="1.1"
   id="svg29"
   sodipodi:docname="Cloud Simple Service.svg"
   style="font-size:12px;overflow:visible;color-interpolation-filters:sRGB;fill:none;fill-rule:evenodd;stroke-linecap:square;stroke-miterlimit:3"
   inkscape:version="0.92.5 (2060ec1f9f, 2020-04-08)"><metadata
   id="metadata35"><rdf:RDF><cc:Work
       rdf:about=""><dc:format>image/svg+xml</dc:format><dc:type
         rdf:resource="http://purl.org/dc/dcmitype/StillImage" /></cc:Work></rdf:RDF></metadata><defs
   id="defs33" /><sodipodi:namedview
   pagecolor="#ffffff"
   bordercolor="#666666"
   borderopacity="1"
   objecttolerance="10"
   gridtolerance="10"
   guidetolerance="10"
   inkscape:pageopacity="0"
   inkscape:pageshadow="2"
   inkscape:window-width="640"
   inkscape:window-height="480"
   id="namedview31"
   showgrid="false"
   inkscape:zoom="1.8365233"
   inkscape:cx="37.795184"
   inkscape:cy="18.900351"
   inkscape:window-x="0"
   inkscape:window-y="0"
   inkscape:window-maximized="0"
   inkscape:current-layer="svg29" />
	<style
   type="text/css"
   id="style2">
	<![CDATA[
		.st1 {fill:#e4e4e4;stroke:none;stroke-linecap:butt;stroke-width:0.972542}
		.st2 {fill:#81ba33;stroke:none;stroke-linecap:butt;stroke-width:0.972542}
		.st3 {fill:#486385;stroke:none;stroke-linecap:butt;stroke-width:0.972542}
		.st4 {fill:none;fill-rule:evenodd;font-size:12px;overflow:visible;stroke-linecap:square;stroke-miterlimit:3}
	]]>
	</style>

	<g
   id="g27"
   transform="translate(-5.6693772,-5.6743)">
		<title
   id="title4">Page-1</title>
		<g
   id="group6688-1"
   transform="translate(5.66929,-34.0157)">
			<title
   id="title6">Cloud Simple Service</title>
			<g
   id="group6689-2">
				<title
   id="title8">g11</title>
				<g
   id="shape6690-3">
					<title
   id="title10">rect5</title>
					<path
   d="m 0,94.02 a 2.36226,2.36226 -180 0 0 2.36,2.36 h 51.97 a 2.36226,2.36226 -180 0 0 2.36,-2.36 V 42.05 A 2.36226,2.36226 -180 0 0 54.33,39.69 H 2.36 A 2.36226,2.36226 -180 0 0 0,42.05 Z"
   class="st1"
   id="path12"
   inkscape:connector-curvature="0"
   style="fill:#e4e4e4;stroke:none;stroke-width:0.97254199;stroke-linecap:butt" />
				</g>
				<g
   id="shape6691-5"
   transform="translate(4.88858,-12.7654)">
					<title
   id="title15">path7</title>
					<path
   d="m 26.3,93.45 c -0.32,0.23 -0.76,0.5 -1.34,0.83 -0.58,0.32 -1.31,0.64 -2.18,0.95 -0.88,0.31 -1.91,0.58 -3.1,0.81 -1.19,0.23 -2.53,0.34 -4.03,0.34 -2.12,0 -4.13,-0.32 -6.02,-0.96 C 7.73,94.79 6.07,93.83 4.64,92.56 3.22,91.29 2.09,89.71 1.25,87.81 0.42,85.92 0,83.71 0,81.19 c 0,-2.46 0.4,-4.64 1.21,-6.55 0.8,-1.91 1.91,-3.52 3.31,-4.83 1.4,-1.32 3.04,-2.32 4.92,-3.01 1.88,-0.7 3.91,-1.04 6.08,-1.04 1.16,0 2.21,0.07 3.14,0.21 0.93,0.14 1.76,0.32 2.48,0.55 a 12.5787,12.5787 0 0 1 1.85,0.72 c 0.51,0.26 0.92,0.48 1.23,0.68 0.65,0.48 1.11,0.98 1.4,1.51 0.28,0.52 0.42,1.06 0.42,1.63 0,0.54 -0.1,1.05 -0.32,1.53 a 6.11811,6.11811 0 0 1 -0.76,1.29 7.62402,7.62402 0 0 1 -0.89,0.97 4.59449,4.59449 0 0 1 -0.74,0.58 c -0.29,-0.29 -0.65,-0.62 -1.09,-1 a 7.54724,7.54724 -180 0 0 -1.58,-1.04 12.1134,12.1134 -180 0 0 -2.15,-0.8 c -0.8,-0.23 -1.7,-0.34 -2.69,-0.34 -1.24,0 -2.37,0.2 -3.39,0.61 a 7.55906,7.55906 -180 0 0 -2.65,1.78 c -0.75,0.78 -1.33,1.72 -1.74,2.82 -0.41,1.11 -0.62,2.35 -0.62,3.73 0,1.42 0.23,2.66 0.68,3.74 0.45,1.07 1.08,1.97 1.87,2.69 a 7.86969,7.86969 -180 0 0 2.82,1.63 c 1.09,0.37 2.27,0.56 3.54,0.56 1.58,0 2.95,-0.2 4.09,-0.6 1.15,-0.39 2.02,-0.8 2.61,-1.23 l 3.18,5.47 z"
   class="st2"
   id="path17"
   inkscape:connector-curvature="0"
   style="fill:#81ba33;stroke:none;stroke-width:0.97254199;stroke-linecap:butt" />
				</g>
				<g
   id="shape6692-7"
   transform="translate(25.7244,-12.7654)">
					<title
   id="title20">path9</title>
					<path
   d="m 2.93,87.3 c 0.17,0.14 0.55,0.36 1.14,0.66 0.6,0.3 1.34,0.59 2.25,0.89 0.9,0.3 1.95,0.57 3.14,0.81 1.19,0.24 2.47,0.36 3.86,0.36 1.13,0 2.03,-0.08 2.71,-0.24 0.68,-0.15 1.2,-0.36 1.57,-0.61 0.37,-0.26 0.61,-0.54 0.72,-0.87 0.11,-0.33 0.17,-0.66 0.17,-1 0,-0.68 -0.28,-1.23 -0.83,-1.67 -0.55,-0.44 -1.57,-0.79 -3.07,-1.04 L 10.26,83.82 A 24.802,24.802 0 0 1 6.87,82.98 10.7185,10.7185 0 0 1 3.84,81.45 7.64646,7.64646 0 0 1 1.65,78.95 C 1.09,77.93 0.81,76.67 0.81,75.17 c 0,-1.3 0.24,-2.52 0.72,-3.67 a 7.96299,7.96299 0 0 1 2.2,-2.99 C 4.72,67.67 5.97,66.99 7.48,66.5 9,66 10.77,65.76 12.81,65.76 c 1.47,0 2.75,0.07 3.86,0.23 1.1,0.16 2.05,0.35 2.84,0.57 0.79,0.23 1.43,0.46 1.93,0.68 0.49,0.23 0.85,0.41 1.08,0.55 0.48,0.29 0.94,0.67 1.38,1.17 0.44,0.49 0.66,1.08 0.66,1.76 0,0.48 -0.09,0.94 -0.26,1.38 a 6.46535,6.46535 0 0 1 -0.61,1.21 c -0.24,0.36 -0.5,0.68 -0.79,0.95 a 7.16929,7.16929 0 0 1 -0.72,0.61 c -0.28,-0.28 -0.71,-0.6 -1.27,-0.95 a 10.5248,10.5248 -180 0 0 -2.04,-0.95 c -0.79,-0.29 -1.69,-0.53 -2.71,-0.72 a 17.1024,17.1024 -180 0 0 -3.27,-0.3 c -1.1,0 -1.98,0.09 -2.63,0.27 -0.65,0.19 -1.13,0.42 -1.46,0.68 -0.33,0.27 -0.54,0.58 -0.64,0.92 a 3.35433,3.35433 -180 0 0 -0.15,0.93 c 0,0.25 0.04,0.49 0.11,0.72 0.07,0.23 0.24,0.44 0.51,0.66 0.27,0.21 0.65,0.41 1.15,0.59 0.49,0.18 1.16,0.36 2.01,0.53 l 4.5,0.89 c 1.58,0.31 2.97,0.7 4.17,1.17 1.2,0.46 2.22,1.04 3.04,1.71 a 6.4252,6.4252 0 0 1 1.84,2.47 c 0.41,0.96 0.61,2.1 0.61,3.43 0,2.97 -1.1,5.29 -3.32,6.96 -2.22,1.66 -5.35,2.5 -9.4,2.5 -1.84,0 -3.52,-0.16 -5.07,-0.47 C 6.62,95.6 5.27,95.24 4.11,94.83 2.96,94.42 2.01,94.03 1.29,93.66 0.57,93.3 0.14,93.04 0,92.9 Z"
   class="st3"
   id="path22"
   inkscape:connector-curvature="0"
   style="fill:#486385;stroke:none;stroke-width:0.97254199;stroke-linecap:butt" />
				</g>
			</g>
		</g>
	</g>
</svg>

<?xml version="1.0" encoding="UTF-8" standalone="no"?>
<!DOCTYPE svg PUBLIC "-//W3C//DTD SVG 1.1//EN" "http://www.w3.org/Graphics/SVG/1.1/DTD/svg11.dtd">
<!-- Generated by Microsoft Visio, SVG Export Cloud Simple Service.svg Page-1 -->
<svg xmlns="http://www.w3.org/2000/svg" xmlns:xlink="http://www.w3.org/1999/xlink" xmlns:ev="http://www.w3.org/2001/xml-events"
		width="0.944882in" height="1.33858in" viewBox="0 0 68.0315 96.378" xml:space="preserve" color-interpolation-filters="sRGB"
		class="st4">
	<style type="text/css">
	<![CDATA[
		.st1 {fill:#e4e4e4;stroke:none;stroke-linecap:butt;stroke-width:0.972542}
		.st2 {fill:#81ba33;stroke:none;stroke-linecap:butt;stroke-width:0.972542}
		.st3 {fill:#486385;stroke:none;stroke-linecap:butt;stroke-width:0.972542}
		.st4 {fill:none;fill-rule:evenodd;font-size:12px;overflow:visible;stroke-linecap:square;stroke-miterlimit:3}
	]]>
	</style>

	<g>
		<title>Page-1</title>
		<g id="group6520-1" transform="translate(5.66929,-34.0157)">
			<title>Cloud Simple Service</title>
			<g id="group6521-2">
				<title>g11</title>
				<g id="shape6522-3">
					<title>rect5</title>
					<path d="M-0 94.02 A2.36226 2.36226 -180 0 0 2.36 96.38 L54.33 96.38 A2.36226 2.36226 -180 0 0 56.69 94.02 L56.69
								 42.05 A2.36226 2.36226 -180 0 0 54.33 39.69 L2.36 39.69 A2.36226 2.36226 -180 0 0 0 42.05 L0 94.02
								 Z" class="st1"/>
				</g>
				<g id="shape6523-5" transform="translate(4.88858,-12.7654)">
					<title>path7</title>
					<path d="M26.3 93.45 C25.98 93.68 25.54 93.95 24.96 94.28 C24.38 94.6 23.65 94.92 22.78 95.23 C21.9 95.54 20.87
								 95.81 19.68 96.04 C18.49 96.27 17.15 96.38 15.65 96.38 C13.53 96.38 11.52 96.06 9.63 95.42 C7.73
								 94.79 6.07 93.83 4.64 92.56 C3.22 91.29 2.09 89.71 1.25 87.81 C0.42 85.92 0 83.71 0 81.19 C0 78.73
								 0.4 76.55 1.21 74.64 C2.01 72.73 3.12 71.12 4.52 69.81 C5.92 68.49 7.56 67.49 9.44 66.8 C11.32 66.1
								 13.35 65.76 15.52 65.76 C16.68 65.76 17.73 65.83 18.66 65.97 C19.59 66.11 20.42 66.29 21.14 66.52
								 A12.5787 12.5787 0 0 1 22.99 67.24 C23.5 67.5 23.91 67.72 24.22 67.92 C24.87 68.4 25.33 68.9 25.62
								 69.43 C25.9 69.95 26.04 70.49 26.04 71.06 C26.04 71.6 25.94 72.11 25.72 72.59 A6.11811 6.11811 0
								 0 1 24.96 73.88 A7.62402 7.62402 0 0 1 24.07 74.85 A4.59449 4.59449 0 0 1 23.33 75.43 C23.04 75.14
								 22.68 74.81 22.24 74.43 A7.54724 7.54724 -180 0 0 20.66 73.39 A12.1134 12.1134 -180 0 0 18.51 72.59
								 C17.71 72.36 16.81 72.25 15.82 72.25 C14.58 72.25 13.45 72.45 12.43 72.86 A7.55906 7.55906 -180
								 0 0 9.78 74.64 C9.03 75.42 8.45 76.36 8.04 77.46 C7.63 78.57 7.42 79.81 7.42 81.19 C7.42 82.61 7.65
								 83.85 8.1 84.93 C8.55 86 9.18 86.9 9.97 87.62 A7.86969 7.86969 -180 0 0 12.79 89.25 C13.88 89.62
								 15.06 89.81 16.33 89.81 C17.91 89.81 19.28 89.61 20.42 89.21 C21.57 88.82 22.44 88.41 23.03 87.98
								 L26.21 93.45 L26.3 93.45 Z" class="st2"/>
				</g>
				<g id="shape6524-7" transform="translate(25.7244,-12.7654)">
					<title>path9</title>
					<path d="M2.93 87.3 C3.1 87.44 3.48 87.66 4.07 87.96 C4.67 88.26 5.41 88.55 6.32 88.85 C7.22 89.15 8.27 89.42
								 9.46 89.66 C10.65 89.9 11.93 90.02 13.32 90.02 C14.45 90.02 15.35 89.94 16.03 89.78 C16.71 89.63
								 17.23 89.42 17.6 89.17 C17.97 88.91 18.21 88.63 18.32 88.3 C18.43 87.97 18.49 87.64 18.49 87.3 C18.49
								 86.62 18.21 86.07 17.66 85.63 C17.11 85.19 16.09 84.84 14.59 84.59 L10.26 83.82 A24.802 24.802 0
								 0 1 6.87 82.98 A10.7185 10.7185 0 0 1 3.84 81.45 A7.64646 7.64646 0 0 1 1.65 78.95 C1.09 77.93 0.81
								 76.67 0.81 75.17 C0.81 73.87 1.05 72.65 1.53 71.5 A7.96299 7.96299 0 0 1 3.73 68.51 C4.72 67.67
								 5.97 66.99 7.48 66.5 C9 66 10.77 65.76 12.81 65.76 C14.28 65.76 15.56 65.83 16.67 65.99 C17.77 66.15
								 18.72 66.34 19.51 66.56 C20.3 66.79 20.94 67.02 21.44 67.24 C21.93 67.47 22.29 67.65 22.52 67.79
								 C23 68.08 23.46 68.46 23.9 68.96 C24.34 69.45 24.56 70.04 24.56 70.72 C24.56 71.2 24.47 71.66 24.3
								 72.1 A6.46535 6.46535 0 0 1 23.69 73.31 C23.45 73.67 23.19 73.99 22.9 74.26 A7.16929 7.16929 0 0
								 1 22.18 74.87 C21.9 74.59 21.47 74.27 20.91 73.92 A10.5248 10.5248 -180 0 0 18.87 72.97 C18.08 72.68
								 17.18 72.44 16.16 72.25 A17.1024 17.1024 -180 0 0 12.89 71.95 C11.79 71.95 10.91 72.04 10.26 72.22
								 C9.61 72.41 9.13 72.64 8.8 72.9 C8.47 73.17 8.26 73.48 8.16 73.82 A3.35433 3.35433 -180 0 0 8.01
								 74.75 C8.01 75 8.05 75.24 8.12 75.47 C8.19 75.7 8.36 75.91 8.63 76.13 C8.9 76.34 9.28 76.54 9.78
								 76.72 C10.27 76.9 10.94 77.08 11.79 77.25 L16.29 78.14 C17.87 78.45 19.26 78.84 20.46 79.31 C21.66
								 79.77 22.68 80.35 23.5 81.02 A6.4252 6.4252 0 0 1 25.34 83.49 C25.75 84.45 25.95 85.59 25.95 86.92
								 C25.95 89.89 24.85 92.21 22.63 93.88 C20.41 95.54 17.28 96.38 13.23 96.38 C11.39 96.38 9.71 96.22
								 8.16 95.91 C6.62 95.6 5.27 95.24 4.11 94.83 C2.96 94.42 2.01 94.03 1.29 93.66 C0.57 93.3 0.14 93.04
								 0 92.9 L2.93 87.3 Z" class="st3"/>
				</g>
			</g>
		</g>
	</g>
</svg>
